X:1
T:Minuett
T:Menuett in G, BWV Anh. 116
T:Johann Sebastian Bach
T:Arrangement für Violine mit Viola von Alexander Jewstügow
C:J. S. Bach
%%score [ 1 2 ]
L:1/8
Q:1/4=92
M:3/4
K:G
V:1 treble nm="Violin I"
V:2 alto nm="Viola"
V:1
!f! !tenuto!.G!tenuto!.B !tenuto!.d!tenuto!.g !tenuto!.A!tenuto!.f | !tenuto!g2 (.uG2 .uG2) | %2
"^sim." !tenuto!.G!tenuto!.B !tenuto!.d!tenuto!.g !tenuto!.A!tenuto!.f | !tenuto!g2 (.G2 .G2) | %4
!mf! !0!e2 e2 eg | d2 d2 dg | c2 dc Bc | A6 | %8
!f! !tenuto!.G!tenuto!.B !tenuto!.d!tenuto!.g !tenuto!.A!tenuto!.f | !tenuto!g2 (.G2 .G2) | %10
 !tenuto!.G!tenuto!.B !tenuto!.d!tenuto!.g !tenuto!.A!tenuto!.f | !tenuto!g2 (.G2 .G2) | %12
 !4!e2 dc BA |!>(! d2 cB A!>)!!mf!G |!f! (3(ABc)!>(! uD2 uF2!>)! |!mf! !tenuto!.vG6 :| %16
 !tenuto!.G!tenuto!.A !tenuto!.B!tenuto!.A !tenuto!.G!tenuto!.F | !tenuto!G2 uE2 uE2 | %18
!f! gf eg fe | f2 !tenuto!.uB2 !tenuto!.uB2 |!mf! gf eg fe | f2!<(! uB2 ue2!<)! | %22
!f! (3(fga)!mf! uB2!<(! u^d2 | e2 ^d!0!e!<)!!f! f2 |!mf! vg2!mp! gf ed |!mf! e2 ed cB | %26
!<(! c2 cB AG!<)! |!f! F2 (EF) D2 |!mp! vA2 (.uD2!<(! .uD2) | vB2 (.uD2 !tenuto!..uD2)!<)! | %30
!f! c2 dc Bc | A6 |!f! !tenuto!.G!tenuto!.B !tenuto!.d!tenuto!.g !tenuto!.A!tenuto!.f | %33
 !tenuto!g2 (.G2 .G2) |!mf! !tenuto!.G!tenuto!.B !tenuto!.d!tenuto!.g !tenuto!.A!tenuto!.f | %35
 !tenuto!g2 (.G2 .G2) |!f! !4!e2 dc BA | d2 cB AG | %38
 (3(AB[Q:1/4=86]c) !tenuto!.uD2[Q:1/4=74] !tenuto!.uF2 |[Q:1/4=64]!mf! vG6[Q:1/4=56] |] %40
V:2
!mf! G4 D2 | !tenuto!.G,!tenuto!.B, !tenuto!.D!tenuto!.G !tenuto!.D!tenuto!.B, | G,4 D2 | %3
 !tenuto!.G,!tenuto!.B, !tenuto!.D!tenuto!.G !tenuto!.D!tenuto!.B, |!mp! C2 G2 C2 | B,2 G2 B,2 | %6
 A,2 F,2 G,2 |!mf! !tenuto!.D,!tenuto!.E, !tenuto!.F,!tenuto!.D, !tenuto!.E,!tenuto!.F, | %8
!mp! G,4 D,2 |!mf! !tenuto!.G,!tenuto!.B, !tenuto!.D!tenuto!.G !tenuto!.D!tenuto!.B, | %10
!mp! G,4 D,2 |!mf! !tenuto!.G,!tenuto!.B, !tenuto!.D!tenuto!.G !tenuto!.D!tenuto!.B, | C2 E,2 G,2 | %13
!mp! B,2 D,2 G,2 | C,2!<(! !tenuto!.D,2 !tenuto!.D2!<)! | %15
!mf! !tenuto!.G2!>(! !tenuto!.D2!>)!!mp! !tenuto!.G,2 :|!p! E2 ^D2 B,2 | E2 B,2 E,2 | %18
!mf! E2 G,2 B,2 |!f! !tenuto!.B,!tenuto!.^D !tenuto!.F!tenuto!.B !tenuto!.F!tenuto!.D | %20
!mp! E2 B,2 G,2 | B,2 A,2 G,2 | A,2 B,2 F,2 | E,2!>(! B,2 A,2!>)! |!p! B,2 D2 G,2 |!<(! C2 D2 E2 | %26
 A,2 B,2 C2!<)! |!mp! D2 A,2 D,2 |!p! F,!tenuto!.D, !tenuto!.F,!tenuto!.D, !tenuto!.F,!tenuto!.D, | %29
!mp! G,!tenuto!.D, G,!tenuto!.D, G,!tenuto!.D, |!mf! F,2 D,2 G,2 | %31
!f! .D,.E, !tenuto!.F,!tenuto!.D, !tenuto!.E,!tenuto!.F, |!mf! G,4 D,2 | %33
!f! !tenuto!.G,!tenuto!.B, !tenuto!.D!tenuto!.G !tenuto!.D!tenuto!.B, |!mp! G,4 D2 | %35
 !tenuto!.G,!tenuto!.B, !tenuto!.D!tenuto!.G !tenuto!.D!tenuto!.B, |!mf! C2 E,2 G,2 | B,2 D,2 G,2 | %38
 C,2 !tenuto!.D,2 !tenuto!.D2 |!>(! !tenuto!.G2 !tenuto!.D2!>)!!mp! !fermata!G,2 |] %40

